app/images/icons/website-icon.svg

<svg fill="none" height="32" viewBox="0 0 32 32" width="32" xmlns="http://www.w3.org/2000/svg"><path clip-rule="evenodd" d="m16 0c-8.83656 0-16 7.16344-16 16 0 8.8366 7.16344 16 16 16 8.8366 0 16-7.1634 16-16 0-8.83656-7.1634-16-16-16zm4.294 12.8343c.3124-.3124.3124-.8189 0-1.1313-.3124-.3125-.8189-.3125-1.1314 0l-7.4635 7.4635c-.3125.3125-.3125.819 0 1.1314.3124.3124.8189.3124 1.1313 0zm-10.32297 3.5397c.80227-.801 1.90827-1.2218 3.04017-1.1566.4411.0254.778.4036.7526.8447s-.4036.7781-.8447.7527c-.6766-.039-1.3377.2125-1.8173.6913l-.0003.0002-1.59887 1.5989c-.60597.606-.84262 1.4892-.62082 2.3169.2218.8278.86836 1.4744 1.69609 1.6962.8278.2218 1.711-.0149 2.317-.6208l1.5989-1.599.0003-.0002c.4787-.4797.7302-1.1408.6912-1.8173-.0254-.4411.3116-.8193.7527-.8447.4411-.0255.8192.3115.8447.7526.0652 1.1319-.3556 2.2379-1.1567 3.0402l-.0004.0004-1.5993 1.5993c-1.0102 1.0102-2.4826 1.4047-3.8625 1.035-1.37989-.3698-2.45773-1.4476-2.82747-2.8275-.36975-1.38.02476-2.8523 1.03493-3.8625l1.59934-1.5993zm11.85877-9.03767c-1.3799-.36975-2.8523.02476-3.8624 1.03493l-1.5994 1.59934-.0014.00145c-.7991.80315-1.2181 1.90875-1.152 3.03975.0257.441.4042.7777.8452.752.4411-.0258.7778-.4042.752-.8453-.0394-.6761.2109-1.337.6884-1.8173l.0006-.0007 1.5979-1.59787c.606-.60597 1.4892-.84262 2.317-.62082s1.4743.86836 1.6961 1.69609c.2218.8278-.0148 1.711-.6208 2.317l-1.5988 1.5988-.0005.0005c-.4797.4786-1.1408.73-1.8173.6911-.4411-.0254-.8192.3116-.8446.7527s.3117.8193.7528.8447c1.1318.0651 2.2376-.3557 3.0399-1.1566l.0005-.0005 1.5994-1.5993c1.0101-1.0102 1.4047-2.4826 1.0349-3.8625-.3697-1.37989-1.4476-2.45773-2.8275-2.82747z" fill="#117cb6" fill-rule="evenodd"/></svg>

<svg width="32" height="32" viewBox="0 0 32 32" fill="none" xmlns="http://www.w3.org/2000/svg">
<path fill-rule="evenodd" clip-rule="evenodd" d="M16 0C7.16344 0 0 7.16344 0 16C0 24.8366 7.16344 32 16 32C24.8366 32 32 24.8366 32 16C32 7.16344 24.8366 0 16 0ZM20.294 12.8343C20.6064 12.5219 20.6064 12.0154 20.294 11.703C19.9816 11.3905 19.4751 11.3905 19.1626 11.703L11.6991 19.1665C11.3866 19.479 11.3866 19.9855 11.6991 20.2979C12.0115 20.6103 12.518 20.6103 12.8304 20.2979L20.294 12.8343ZM9.97103 16.374C10.7733 15.573 11.8793 15.1522 13.0112 15.2174C13.4523 15.2428 13.7892 15.621 13.7638 16.0621C13.7384 16.5032 13.3602 16.8402 12.9191 16.8148C12.2425 16.7758 11.5814 17.0273 11.1018 17.5061L11.1015 17.5063L9.50263 19.1052C8.89666 19.7112 8.66001 20.5944 8.88181 21.4221C9.10361 22.2499 9.75017 22.8965 10.5779 23.1183C11.4057 23.3401 12.2889 23.1034 12.8949 22.4975L14.4938 20.8985L14.4941 20.8983C14.9728 20.4186 15.2243 19.7575 15.1853 19.081C15.1599 18.6399 15.4969 18.2617 15.938 18.2363C16.3791 18.2108 16.7572 18.5478 16.7827 18.9889C16.8479 20.1208 16.4271 21.2268 15.626 22.0291L15.6256 22.0295L14.0263 23.6288C13.0161 24.639 11.5437 25.0335 10.1638 24.6638C8.78391 24.294 7.70607 23.2162 7.33633 21.8363C6.96658 20.4563 7.36109 18.984 8.37126 17.9738L9.9706 16.3745L9.97103 16.374ZM21.8298 7.33633C20.4499 6.96658 18.9775 7.36109 17.9674 8.37126L16.368 9.9706L16.3666 9.97205C15.5675 10.7752 15.1485 11.8808 15.2146 13.0118C15.2403 13.4528 15.6188 13.7895 16.0598 13.7638C16.5009 13.738 16.8376 13.3596 16.8118 12.9185C16.7724 12.2424 17.0227 11.5815 17.5002 11.1012L17.5008 11.1005L19.0987 9.50263C19.7047 8.89666 20.5879 8.66001 21.4157 8.88181C22.2435 9.10361 22.89 9.75017 23.1118 10.5779C23.3336 11.4057 23.097 12.2889 22.491 12.8949L20.8922 14.4937L20.8917 14.4942L20.8917 14.4942C20.412 14.9728 19.7509 15.2242 19.0744 15.1853C18.6333 15.1599 18.2552 15.4969 18.2298 15.938C18.2044 16.3791 18.5415 16.7573 18.9826 16.7827C20.1144 16.8478 21.2202 16.427 22.0225 15.6261L22.023 15.6256L23.6224 14.0263C24.6325 13.0161 25.0271 11.5437 24.6573 10.1638C24.2876 8.78391 23.2097 7.70607 21.8298 7.33633Z" fill="#117CB6"/>
</svg>
